icon-svg/upstairs-2.svg

<svg xmlns="http://www.w3.org/2000/svg" fill="#44739e" viewBox="0 0 24 24"><path d="M13.638 6.926a2.2 2.2 0 0 0-.29.02 3.63 3.63 0 0 0-2.125.665l.218.451a3.01 3.01 0 0 1 1.683-.562 1.548 1.548 0 0 1 1.76 1.3 1.47 1.47 0 0 1 .014.325c-.013 1.225-1 2.229-3.094 4.076l-.816.735v.413H15.9V13.8h-3.669v-.22l.054-.068.652-.56C14.556 11.509 15.7 10.379 15.7 9a2.068 2.068 0 0 0-2.062-2.074m-.426 10.16-.107-.068-5.01-3.172-1.081.605 5.284 3.216zM6.259 7.198l.987-.572L4.29 5.34l-.117 3.067 1.071-.621 2.307 2.969-5.55 3.736.873 1.032 6.596-4.462Zm5.833 11.235-5.257-3.311-3.125 1.543 5.08 3.588Zm-2.703-5.871 1.584.985.292-.264-1.917-1.173Zm2.857-.162c.089-.081.17-.158.255-.235l-2-1.225.036.4zM7.355 6.7l.024.014 1.05 1.142v.014l.023.014 1.071 1.16v.015l.023.014L11 10.655l-.393.22 1.99 1.207q.372-.351.672-.657L11.514 10.4l.091-.061.011-.007 1.745 1c.109-.114.208-.223.3-.33L10.5 9.127V9.11l-.03-.01.375-.243 1.083-.727a3.65 3.65 0 0 0-.448.281l-.145.113-.183-.373-.632.427-1.12-.65V7.91l-.057-.034.114-.083 4.857-3.259.021-.46-4.912 3.317-2.167-1.345.1.644Zm4.008 6.5.24-.215c.2-.176.364-.331.537-.485l-1.633-1.035-1.037.579Zm2.855-9.186L12.199 3 7.382 5.992l2.049 1.235ZM13.126 7.8a2.25 2.25 0 0 0-.554.072L10.725 9.1l3.037 1.79a2.8 2.8 0 0 0 .838-1.763c0-.606-.257-1.327-1.474-1.327m3.513 4.968-1.9-1.128c-.094.1-.2.207-.3.312l2.138 1.227.132.071-.14.093h-.007l-.358.244v1.062h-.741l-.954.614-1-.614h-.76l1.692 1.051.134.079-.024.018-.052.033-.073.053h-.005l-.977.628-5.3-3.246.043.491 5.064 3.151.134.079.106.065v.028l-1.177.757-4.906-3-.521-.319.047.516 5.33 3.3.094.057h.008l-.146.083-3.43 1.959-5.213-3.7v.541L8.79 21l3.787-2.232.615-.363.57-.334 1.938-2.366.008-.006 1-1.223 2.253-2.753 3.011-2.134.028-.525Zm-8.374.435 5.164 3.144.856-.545-1.815-1.149h-1.784v-.847l.183-.166-1.586-1.005Zm6.413.298-1.132-.693-.266.24.727.453zm-1.543-.321-.375.321h.966l-.556-.352Zm2.062 1.473h-1.44l.736.447Zm.929-1.153.339-.215-.029-.014-2.093-1.221c-.217.218-.451.441-.7.669l1.282.781Zm-2.752-6.847a3.66 3.66 0 0 1 .661.063L15.548 5.7l-.034-.018.021-.487Zm-2.846 1.754.567-.38-.247-.5.1-.08a3.87 3.87 0 0 1 2.18-.782l2.287-1.536-1.015-.507-4.81 3.245Zm3.702-1.642A2.26 2.26 0 0 1 16 9a3.832 3.832 0 0 1-1.166 2.526l1.811 1.07L21.871 9l.129.064-6.29-3.283Z"/></svg>

<?xml version="1.0" encoding="UTF-8"?>
<svg width="24px" fill="#44739e" height="24px" viewBox="0 0 24 24" version="1.1" xmlns="http://www.w3.org/2000/svg" xmlns:xlink="http://www.w3.org/1999/xlink">
            <path d="m 13.638,6.926 a 2.163,2.163 0 0 0 -0.29,0.02 3.63,3.63 0 0 0 -2.125,0.665 l 0.218,0.451 a 3.011,3.011 0 0 1 1.683,-0.562 1.548,1.548 0 0 1 1.76,1.3 1.473,1.473 0 0 1 0.014,0.325 c -0.013,1.225 -1,2.229 -3.094,4.076 l -0.816,0.735 v 0.413 H 15.9 V 13.8 h -3.669 v -0.22 l 0.054,-0.068 0.652,-0.56 C 14.556,11.509 15.7,10.379 15.7,9 A 2.068,2.068 0 0 0 13.638,6.926 Z m -0.426,10.16 -0.107,-0.068 -5.01,-3.172 -1.081,0.605 5.284,3.216 z M 6.259,7.198 7.246,6.626 4.29,5.34 4.173,8.407 5.244,7.786 7.551,10.755 2.001,14.491 2.874,15.523 9.47,11.061 Z M 12.092,18.433 6.835,15.122 3.71,16.665 8.79,20.253 Z M 9.389,12.562 10.973,13.547 11.265,13.283 9.348,12.11 Z M 12.246,12.4 c 0.089,-0.081 0.17,-0.158 0.255,-0.235 l -2,-1.225 0.036,0.4 z M 7.355,6.7 7.379,6.714 8.429,7.856 V 7.87 l 0.023,0.014 1.071,1.16 v 0.015 l 0.023,0.014 1.454,1.582 -0.393,0.22 1.99,1.207 q 0.372,-0.351 0.672,-0.657 l -1.755,-1.025 0.091,-0.061 0.011,-0.007 1.745,1 c 0.109,-0.114 0.208,-0.223 0.3,-0.33 L 10.5,9.127 V 9.11 L 10.47,9.1 10.845,8.857 11.928,8.13 A 3.654,3.654 0 0 0 11.48,8.411 L 11.335,8.524 11.152,8.151 10.52,8.578 9.4,7.928 V 7.91 L 9.343,7.876 9.457,7.793 14.314,4.534 14.335,4.074 9.423,7.391 7.256,6.046 7.356,6.69 Z m 4.008,6.5 0.24,-0.215 c 0.2,-0.176 0.364,-0.331 0.537,-0.485 L 10.507,11.465 9.47,12.044 Z M 14.218,4.014 12.199,3 7.382,5.992 9.431,7.227 Z M 13.126,7.8 A 2.251,2.251 0 0 0 12.572,7.872 L 10.725,9.1 13.762,10.89 A 2.8,2.8 0 0 0 14.6,9.127 C 14.6,8.521 14.343,7.8 13.126,7.8 Z m 3.513,4.968 -1.9,-1.128 c -0.094,0.1 -0.2,0.207 -0.3,0.312 l 2.138,1.227 0.132,0.071 -0.14,0.093 h -0.007 l -0.358,0.244 v 1.062 h -0.741 l -0.954,0.614 -1,-0.614 h -0.76 l 1.692,1.051 0.134,0.079 -0.024,0.018 -0.052,0.033 -0.073,0.053 h -0.005 l -0.977,0.628 -5.3,-3.246 0.043,0.491 5.064,3.151 0.134,0.079 0.106,0.065 v 0.028 l -1.177,0.757 -4.906,-3 -0.521,-0.319 0.047,0.516 5.33,3.3 0.094,0.057 h 0.008 l -0.146,0.083 -3.43,1.959 -5.213,-3.7 v 0.541 L 8.79,21 l 3.787,-2.232 0.615,-0.363 0.57,-0.334 1.938,-2.366 0.008,-0.006 1,-1.223 2.253,-2.753 L 21.972,9.589 22,9.064 Z m -8.374,0.435 5.164,3.144 0.856,-0.545 -1.815,-1.149 H 10.686 V 13.806 L 10.869,13.64 9.283,12.635 Z m 6.413,0.298 -1.132,-0.693 -0.266,0.24 0.727,0.453 z M 13.135,13.18 12.76,13.501 h 0.966 L 13.17,13.149 Z m 2.062,1.473 h -1.44 L 14.493,15.1 Z M 16.126,13.5 16.465,13.285 16.436,13.271 14.343,12.05 c -0.217,0.218 -0.451,0.441 -0.7,0.669 L 14.925,13.5 Z M 13.374,6.653 a 3.663,3.663 0 0 1 0.661,0.063 L 15.548,5.7 15.514,5.682 15.535,5.195 Z m -2.846,1.754 0.567,-0.38 -0.247,-0.5 0.1,-0.08 a 3.87,3.87 0 0 1 2.18,-0.782 L 15.415,5.129 14.4,4.622 9.59,7.867 Z M 14.23,6.765 A 2.26,2.26 0 0 1 16,9 3.832,3.832 0 0 1 14.834,11.526 l 1.811,1.07 L 21.871,9 22,9.064 15.71,5.781 Z"/>

</svg>
